source/images/footer-icon-facebook.svg

<?xml version="1.0" encoding="UTF-8" standalone="no"?>
<svg width="19px" height="19px" viewBox="0 0 19 19" version="1.1" xmlns="http://www.w3.org/2000/svg" xmlns:xlink="http://www.w3.org/1999/xlink">
    <!-- Generator: Sketch 3.7.1 (28215) - http://www.bohemiancoding.com/sketch -->
    <title>footer-icon-facebook</title>
    <desc>Created with Sketch.</desc>
    <defs></defs>
    <g id="Page-1" stroke="none" stroke-width="1" fill="none" fill-rule="evenodd">
        <g id="footer-icon-facebook" fill="#FFFFFF">
            <path d="M11.2571709,18.8378154 C15.6643892,18.0136194 19,14.1463465 19,9.5 C19,4.25329488 14.7467051,0 9.5,0 C4.25329488,0 0,4.25329488 0,9.5 C0,14.3644751 3.65615127,18.3750104 8.37038755,18.9335395 L8.37038755,12.1223687 L5.95658935,12.1223687 L5.95658935,9.32693381 L8.37038755,9.32693381 L8.37038755,7.26537694 C8.37038755,4.8729964 9.83153143,3.5702569 11.9657502,3.5702569 C12.9880478,3.5702569 13.8667465,3.64636863 14.1227522,3.68043563 L14.1227522,6.18069502 L12.6424905,6.18134186 C11.4819125,6.18134186 11.2571709,6.73288235 11.2571709,7.54222526 L11.2571709,9.32693381 L14.0252947,9.32693381 L13.6647881,12.1223687 L11.2571709,12.1223687 L11.2571709,18.8378154 Z" id="Combined-Shape"></path>
        </g>
    </g>
</svg>

<svg width="19" height="19" viewBox="0 0 19 19" xmlns="http://www.w3.org/2000/svg">
    <path d="M11.257 18.838C15.664 18.014 19 14.146 19 9.5 19 4.253 14.747 0 9.5 0S0 4.253 0 9.5c0 4.864 3.656 8.875 8.37 9.434v-6.812H5.957V9.327H8.37V7.265c0-2.392 1.462-3.695 3.596-3.695 1.022 0 1.9.076 2.157.11v2.5h-1.48c-1.16 0-1.386.553-1.386 1.362v1.785h2.768l-.36 2.795h-2.408v6.716z" fill="#FFF" fill-rule="evenodd"/>
</svg>
